X:1
T:Father, When Shall All the Weary Earth
T:Theodore Edson Perkins
T:Father, When Shall All the Weary Earth
T:Public Domain
T:Public Domain
C:Theodore Edson Perkins
Z:Public Domain
%%score ( 1 2 ) ( 3 4 )
L:1/8
M:4/4
K:G
V:1 treble 
V:2 treble 
V:3 bass 
V:4 bass 
V:1
 [DB]3 [B,D] [CE][DF][DG][EA] | [DB]2 [DA]2 [DG]4 | [DB]3 [B,D] [CE][DF][DG][DB] | %3
w: 1.~Fa- ther, when shall all the|wea- ry earth|Cease from sigh- ing and ring|
w: 2.~Sav- ior, when shall my poor|sin- ful soul|On Thee all its sins and|
w: 3.~En- ter now up- on Thy|glo- rious reign!|Come and raise to life what|
 [DA]2 (DG) [FA]4 | [DG]3 [DA] [Gc][GB][DA][DG] | [CE]2 [CG]2 [B,D]2 [DG]>[EA] | %6
w: out its * mirth?|umph in its grand, im- mor-|tal birth, In- to won-|
w: sor- row * roll?|Thy full sal- va- tion and|be whole? When, my Je-|
w: sin hath * slain!|my heart and o’er the world|re- gain Thy do- min-|
 [DB]3 [DG] [FA]2 [FA]2 | G8 ||"^Refrain" [Gd]3 [GB] [Ge][Gd][DB][DG] | [GB]2 [FA]2 G4 | %10
w: drous life with God.||||
w: sus, wilt Thou come?|Christ|com- ing as the King of|kings; Shout, ye|
w: ion! Je- sus, come!||||
 [Gd]3 [GB] [Ge][Gd][GB]G | [FA]2 [GB]2 [FA]4 |] %12
w: ||
w: somed, o’er the grace He brings;||
w: ||
V:2
 x8 | x8 | x8 | x2 B2 x4 | x8 | x8 | x8 | G8 || x8 | x4 G4 | x7 G | x8 |] %12
w: |||Tri-|||||||||
w: |||Know||||is||ran-|||
w: |||O’er|||||||||
V:3
 G,3 G, [C,G,][C,A,][B,,G,][C,G,] | [D,G,]2 [D,C]2 [G,B,]4 | G,3 G, [C,G,][C,A,][B,,G,][G,,G,] | %3
w: ~ ~ ~ ~ ~ ~|~ ~ ~|~ ~ ~ ~ ~ ~|
 [D,F,]2 (G,A,) [D,D]4 | [G,B,]3 [G,C] [G,E][G,D][F,C][G,B,] | [C,G,]2 [E,G,]2 G,2 [B,,G,]>[C,G,] | %6
w: the whole * earth|the wel- come rings, Hal- le-|lu- jah, praise His name!|
 [D,G,]3 [D,B,] [D,C]2 [D,C]2 | [G,,G,B,]8 || [G,B,]3 [G,D] [G,C][G,B,][G,D][G,B,] | %9
w: |||
 [D,D]2 [D,C]2 [G,B,]4 | [G,B,]3 [G,D] [G,C][G,B,][G,D][G,B,] | [D,D]2 [D,D]2 [D,D]4 |] %12
w: |||
V:4
 G,3 G, x4 | x8 | G,3 G, x4 | x2 D,2 x4 | x8 | x4 G,2 x2 | x8 | x8 || x8 | x8 | x8 | x8 |] %12
w: ~ ~||~ Hark!|with|||||||||

